X: 9807
T: Denis Murphy's
R: slide
M: 12/8
K: Dmajor
d2 B|:A2 D FED F2 A Aef|g2 e fed e2 d B2 d|
A2 D FED F2 A Aef|1 a2 f e2 f d3- d2 B:|2 a2 f e/f/ge d3-:|
|:dAB|d2 e f3 gfe f3|g2 e fed e2 d BAB|
d2 e f2 f gfe f2 g|1 a2 f e/f/ge d3-:|2 a2 f e2 f d3- dcB||

